X:1     %Music
T:The Sea
C:Edvard Grieg, Adapted by John Horton
N:Book: Singing Together, BBC Broadcasts to Schools, Spring Term, 1959
M:2/4     %Meter
L:1/16     %
K:G 
G3G d4 |A2A2 d4 |B2BB d2d2 |c4 d4 |
w:Rocks of home! Sea and foam Best on the pi-lot's sta-tion; 
.d2.d.d ^c2Bc |.B2.B2 ^c3c |d2ed ^c2Bc |
w:See where his flag is_ hois-ted high, He o-pens the gates as the 
.B2.B2 ^c3c |
w:ships come by, The 
d2^cB A2GA |G4 G4 |
w:ves-sels of ev-'ry_ na-tion